coreui/free/cil-share-boxed.svg

<svg xmlns="http://www.w3.org/2000/svg" viewBox="0 0 512 512">
  <polygon fill="var(--ci-primary-color, currentColor)" points="464 248 464 464 48 464 48 48 264 48 264 16 16 16 16 496 496 496 496 216 464 248" class="ci-primary"/>
  <path fill="var(--ci-primary-color, currentColor)" d="M106.12,171.135A96.274,96.274,0,0,0,96,214.364V430.545h47.782l41.181-147.564a66.953,66.953,0,0,1,64.283-48.8H304V320h38.6L494.627,168.9,342.656,16H304v88H210.182A114.4,114.4,0,0,0,106.12,171.135ZM336,136V54.7L449.373,168.758,336,281.441V202.182H249.246a99.055,99.055,0,0,0-95.105,72.2L128,368.051V214.364a64.576,64.576,0,0,1,6.879-29.2l.292-.614A82.356,82.356,0,0,1,210.182,136Z" class="ci-primary"/>
</svg>

<svg viewBox="0 0 512 512" xmlns="http://www.w3.org/2000/svg"><g><path d="M464 248l0 216 -416 0 0-416 216 0 0-32L16 16l0 480 480 0 0-280 -32 32Z"/><path d="M106.12 171.135h-.001c-6.7 13.42-10.17 28.22-10.12 43.22v216.18h47.78l41.18-147.57v0c8.11-28.81 34.35-48.73 64.28-48.8h54.75v85.81h38.6l152.027-151.1L342.64 15.97h-38.66v88h-93.82v0c-44.85.04-85.54 26.29-104.07 67.13ZM336 135.995v-81.3L449.37 168.75l-113.38 112.68v-79.26h-86.76 0c-44.28.1-83.11 29.58-95.11 72.2l-26.15 93.66V214.34v-.001c-.04-10.14 2.32-20.15 6.87-29.2l.29-.62 -.001-.001c13.28-29.52 42.63-48.52 75.01-48.55Z"/></g></svg>
